X:11
T:Milicen's Favourite Hornpipe (Craig 11)
T:Milicent's Favourite
T:Belfast Hornpipe
%Fairly obvious typesetting error in the title
M:C
L:1/8
B:Empire Violin Collection of Hornpipes
H:Published by Thomas Craig
H:Music Publisher, &c.
H:George Street, Aberdeen, N.B.
Z:Peter Dunk December 2011
R:hornpipe
Q:1/4=140
K:D
a>g | f>ad>f A>dF>A | D>FA>d f2 e>f | g>be>g c>eA>F | G>AB>G  E2 a>g |!
f>ad>f A>dA>F | D>FA>d f2 e>f | g>bg>e  c>AB>c | d2f2d2 :|!
|: D2 | G>FG>A B>cd>e | f3 e d>cd>B | A2f2 f>Af>A | G2e2 e>Ge>G |!
G>FG>A B>cd>e | f3 e d>cd>B | A>fe>d c>AB>c | d2f2d2 :|!
|:a>g | (3fgf (3efe (3ded (3cdc | (3BcB (3ABA G2 b>a | (3gag (3fgf (3efe (3ded | (3cdc (3BcB A2 a>g |!
(3fgf (3efe (3ded (3cdc | (3BcB (3ABA (3GAG (3FGF | E>ge>d c>AB>c | d2f2d2 :|

